cps (132 / 60 / 2)


d1 $ every 2 (slow 2) $ every 8 (|*| speed 1.5) $ juxBy 0.25 (rev . chop 2) $ distrib ["<3 5 3>","<7 5>",8] $ sound "osc1:1"
  # gain 1.1
  # legato 1
  # bpf (slow 4 $ scale 1000 3000 sine) # bpq 10


d2 $ juxBy 0.5 rev $ off 0.25 (|*| speed 1.5) $ substruct "x/2 [x/2 [x/4 x/3]]" $ palindrome $ (chop 128 $ sound "ose1") # hpf (scale 100 3000 saw)
  # gain 1.1



d1 $ sound "cp" # gain 1.2

nudger (-0.01)
