
d1 $ off 0.125 (|*| speed 0.5) $ jux rev $
  off 0.25 (# crush 2) $ slow 2 $ sound "odx(3,8)"
  # speed 4
  # lpf (slow 2 $ scale 3000 200 sine)
  # lpq 0.2

d2 $ n (slow 2 "c7(3,8) e6*2 f7(3,8) g6") # sound "rash"
  # lpf 2000
  # lpq 0.2

d3 $ jux rev $ off 0.25 (# speed 0.75) $ chop "<3 4>" $ sound "~ cp*2"
  # orbit 1
  # room (slow 4 saw)
  # size 0.7
  # speed 2
  
