
d1 $ off 0.25 ((# s "rash")) $ jux rev $ chunk 4 (hurry 0.5) $ (chop 16 $ (n "<c7(3,8) e7(3,8) f7(3,8,2) g7(3,8)>" # sound "xx"))
  # pan (saw + (slow 5 saw))

d2 $ degrade $ jux' [id, (0.25 <~)] $ (chunk 4 (hurry 0.5) $ loopAt 4 $ chop 16 $ sound "paper")
  |+| pan saw

d3 $ iter 4 $ jux' [id, rev, (hurry 2)] $ iter 4 $ loopAt 2 $ chop 8 $  sound "arc"
  # gain 1.2
  # orbit 1

d4 $ jux' [id, rev, (0.25 <~)] $ (chop 64 $ sound "odx [~ future] mt8*2 off")
  # nudge (slow 8 sine)
