
d1 $ off 0.25 ((# s "rash")) $ jux rev $ chunk 4 (hurry 0.5) $ (chop 16 $ (n "<c7(3,8) e7(3,8) f7(3,8,2) g7(3,8)>" # sound "xx"))
  # pan (saw + (slow 5 saw))

d2 $ jux' [id, (0.25 <~)] $ (chunk 4 (hurry 0.5) $ loopAt 4 $ chop 16 $ sound "paper")
  |+| pan saw
