import Sound.Tidal.MIDI.Context
import Sound.Tidal.MIDI.JP08
displayOutputDevices >>= putStrLn
devices <- midiDevices

m1 <- midiStream devices "MIDI4x4 MIDI 1" 13 jp08Controller


m1 $ note "d(3,8)"

