{-
nudge sine sneeze
arpeggio build into paper
kick patterns
uptempo into techno with room sz saw
ritusen weave rise+fall
fill spaceOut breakUp substruct
0.125 <~

osd1
-}

d1 $ sound "bd*2"
  # pan "1 0"


