

x1 $ struct "[x _ x*2, ~ <x [~ x]> ~ x]" $ sound "bk"
  # n (26)
  # legato 1
  
x2 $ (off "<0.125 0.25 0.75>" (# grunge 0.4) $ sound "bk:1 ~ [~ bk:6] [~ bk:3]")
  # hpf 300
  # hpq (slow 4 $ scale 0.2 0.4 sine)
