cps 0.8

d1 $ superimpose rev $ off 0.125 (# s "pulse") $ n (off 0.125 (subtract 12) $ off 0.125 (+7) $ "<c6(3,8) e7(3,8) f7(3,8,2) g6*2>")
  # sound "rash"

d2 $ iter 4 $ loopAt 4 $ chop 16 $ sound "paper"

d3 $ every 4 (0.25 <~) $chunk 4 (hurry 2) $ loopAt 2 $ chop 128 $ sound "arc"
  # shape 0.4
