d1 $ jux (rev . chop 8) $ sound "micron(3,8)" # n (slow 4 $ run 8)

d2 $ jux rev $ chop 8 $ struct "x(3,8)" $ slow 4 $ n (run (8)) # sound "claus"

d3 $ jux ((# speed "2") . rev) $ n "0 ~ ~ 5 6 ~ 5 ~" # sound "micron"

d4 $ sound "micro"

d1 $ iter 4 $ sound "arpy:0 arpy:1 arpy:2 arpy:3"

d1 $ sound "arpy:0*2 arpy:2? arpy:4 ~"
  # vowel "a i"
  
0 1 2 3
1 2 3 0
2 3 0 1
3 0 1 2


0 1 2 3



