d1 $ juxBy 0.25 (rev) $ n (off "<0.25 0.125 0.5>" (+ "<7 12>") $ slow 2 $ "c6(3,8) <a6 e5>(3,8)") # sound "rash"

d2 $ runWith 4 (|-| n "24") $ stut 8 0.5 0.125 $ (juxBy 0.25 (rev) $ n (off "{0.5 0.25 0.125}%1" (+ "<7 12 0>") $ slow 2 $ "c6([3 5]/2,16) <a6 e5>(5,8,4)" - 12) # sound "supermandolin")
  # legato (sine1 * 1 + 4)

